svgs/nubank.svg

<svg width="192" height="192" viewBox="0 0 192 192" fill="none" xmlns="http://www.w3.org/2000/svg">
<path d="M22.0905 88.1673C21.8914 91.8763 22.0905 95.6706 22.0905 99.3574V135.071H41.6332C41.6332 135.071 41.6332 117.476 41.6332 102.347C41.6332 92.1619 41.5608 83.086 41.6332 81.2241C41.9734 72.3892 44.3366 66.6366 48.741 61.9187C48.4032 61.9039 48.063 61.8965 47.7204 61.8965C43.0132 61.9204 38.4017 63.2614 34.3837 65.7747C30.3656 68.2879 27.0936 71.878 24.9206 76.1576C23.0133 79.9445 22.3221 84.0206 22.0905 88.1673Z" stroke="black" stroke-width="12" stroke-linejoin="round"/>
<path d="M66.894 54C63.4885 53.9612 60.1122 54.6473 56.9788 56.0149C53.8454 57.3824 51.023 59.4016 48.6903 61.9447C63.2496 61.9447 72.6736 72.1073 73.202 88.2786C73.3214 91.9876 73.3612 111.857 73.3612 111.857V135.071H92.9039V103.697C92.9039 94.213 92.9799 86.0013 92.3357 80.3302C90.5262 64.5447 81.1023 54 66.894 54Z" stroke="black" stroke-width="12" stroke-linejoin="round"/>
<path d="M169.913 102.833C170.112 99.1237 169.913 95.3294 169.913 91.6426V55.925H150.37C150.37 55.925 150.37 73.5205 150.37 88.6458C150.37 98.8307 150.443 107.907 150.37 109.787C150.027 118.614 147.663 124.382 143.259 129.1C143.597 129.115 143.937 129.122 144.28 129.122C148.986 129.098 153.597 127.757 157.615 125.245C161.633 122.732 164.906 119.143 167.079 114.865C168.99 111.056 169.692 106.979 169.913 102.833Z" stroke="black" stroke-width="12" stroke-linejoin="round"/>
<path d="M125.102 137C128.508 137.039 131.884 136.353 135.018 134.985C138.151 133.618 140.973 131.598 143.306 129.055C128.747 129.055 119.323 118.896 118.794 102.721C118.675 99.0124 118.624 89.7956 118.624 79.1248V55.9027L99.0816 55.925V87.3031C99.0816 96.787 99.0056 105.002 99.6498 110.67C101.477 126.455 110.901 137 125.102 137Z" stroke="black" stroke-width="12" stroke-linejoin="round"/>
</svg>

<svg width="192" height="192" viewBox="0 0 192 192" fill="none" xmlns="http://www.w3.org/2000/svg"><path d="M22.09 88.167c-.199 3.71 0 7.504 0 11.19v35.714h19.543v-32.724c0-10.185-.072-19.261 0-21.123.34-8.835 2.704-14.587 7.108-19.305a23.315 23.315 0 0 0-1.02-.022 25.38 25.38 0 0 0-13.337 3.878 26.24 26.24 0 0 0-9.463 10.383c-1.908 3.787-2.599 7.863-2.83 12.01Z" stroke="#000" stroke-width="12" stroke-linejoin="round"/><path d="M66.894 54a24.091 24.091 0 0 0-9.915 2.015 24.613 24.613 0 0 0-8.289 5.93c14.56 0 23.984 10.162 24.512 26.334.12 3.709.16 23.578.16 23.578v23.214h19.542v-31.374c0-9.484.076-17.696-.568-23.367C90.526 64.545 81.102 54 66.894 54ZM169.913 102.833c.199-3.71 0-7.504 0-11.19V55.925H150.37v32.72c0 10.186.073 19.262 0 21.142-.343 8.827-2.707 14.595-7.111 19.313.338.015.678.022 1.021.022a25.39 25.39 0 0 0 13.335-3.877 26.245 26.245 0 0 0 9.464-10.38c1.911-3.809 2.613-7.886 2.834-12.032Z" stroke="#000" stroke-width="12" stroke-linejoin="round"/><path d="M125.102 137a24.085 24.085 0 0 0 9.916-2.015 24.613 24.613 0 0 0 8.288-5.93c-14.559 0-23.983-10.159-24.512-26.334-.119-3.709-.17-12.925-.17-23.596V55.903l-19.542.022v31.378c0 9.484-.076 17.699.568 23.367C101.477 126.455 110.9 137 125.102 137Z" stroke="#000" stroke-width="12" stroke-linejoin="round"/></svg>
